(Speed test v3)
(T21  D=6 CR=0 TAPER=12deg - ZMIN=-80 - chamfer mill)
G90 G94
G17
G21
G28 G91 Z0
G90

(Trace1)
T21
S4775 M3
G54
G0 X310 Y200
Z-30
G1 Z-80 F90000
X309.503 Y201.158 Z-79.283 F120000
X308.995 Y202.294 Z-78.571
X308.476 Y203.409 Z-77.864
X307.947 Y204.502 Z-77.161
X307.406 Y205.574 Z-76.463
X306.855 Y206.625 Z-75.769
X306.292 Y207.654 Z-75.08
X305.719 Y208.662 Z-74.395
X305.135 Y209.649 Z-73.715
X304.54 Y210.614 Z-73.04
X303.935 Y211.558 Z-72.369
X303.318 Y212.48 Z-71.702
X302.691 Y213.381 Z-71.04
X302.052 Y214.26 Z-70.383
X301.403 Y215.118 Z-69.73
X300.743 Y215.955 Z-69.082
X300.072 Y216.77 Z-68.439
X299.39 Y217.564 Z-67.8
X298.698 Y218.337 Z-67.165
X297.994 Y219.088 Z-66.536
X297.28 Y219.818 Z-65.91
X296.555 Y220.526 Z-65.29
X295.82 Y221.214 Z-64.674
X295.073 Y221.879 Z-64.062
X294.316 Y222.524 Z-63.455
X293.548 Y223.147 Z-62.853
X292.769 Y223.748 Z-62.255
X291.98 Y224.329 Z-61.662
X291.18 Y224.888 Z-61.073
X290.37 Y225.426 Z-60.489
X289.549 Y225.942 Z-59.91
X288.718 Y226.437 Z-59.335
X287.876 Y226.911 Z-58.765
X287.023 Y227.364 Z-58.2
X286.161 Y227.796 Z-57.639
X285.288 Y228.206 Z-57.083
X284.405 Y228.595 Z-56.532
X283.512 Y228.963 Z-55.985
X282.608 Y229.31 Z-55.443
X281.695 Y229.636 Z-54.905
X280.772 Y229.941 Z-54.373
X279.839 Y230.224 Z-53.845
X278.896 Y230.487 Z-53.322
X277.944 Y230.728 Z-52.804
X276.982 Y230.949 Z-52.291
X276.011 Y231.149 Z-51.782
X275.03 Y231.328 Z-51.278
X274.041 Y231.486 Z-50.779
X273.042 Y231.623 Z-50.285
X272.034 Y231.739 Z-49.796
X271.018 Y231.835 Z-49.312
X269.992 Y231.91 Z-48.833
X268.959 Y231.965 Z-48.359
X267.916 Y231.998 Z-47.89
X266.866 Y232.012 Z-47.426
X265.807 Y232.005 Z-46.966
X264.741 Y231.977 Z-46.513
X263.666 Y231.929 Z-46.064
X262.584 Y231.861 Z-45.62
X261.495 Y231.772 Z-45.182
X260.398 Y231.663 Z-44.748
X259.294 Y231.535 Z-44.32
X258.184 Y231.386 Z-43.898
X257.066 Y231.217 Z-43.48
X255.942 Y231.028 Z-43.068
X254.812 Y230.819 Z-42.661
X253.675 Y230.591 Z-42.26
X252.533 Y230.343 Z-41.864
X251.385 Y230.075 Z-41.474
X250.231 Y229.787 Z-41.089
X249.072 Y229.481 Z-40.709
X247.908 Y229.154 Z-40.335
X246.739 Y228.809 Z-39.967
X245.565 Y228.444 Z-39.605
X244.388 Y228.061 Z-39.248
X243.206 Y227.658 Z-38.897
X242.02 Y227.236 Z-38.552
X240.83 Y226.795 Z-38.212
X239.638 Y226.336 Z-37.879
X238.442 Y225.858 Z-37.551
X237.244 Y225.362 Z-37.229
X236.043 Y224.847 Z-36.913
X234.84 Y224.314 Z-36.604
X233.635 Y223.763 Z-36.3
X232.428 Y223.194 Z-36.002
X231.221 Y222.607 Z-35.711
X230.012 Y222.002 Z-35.426
X228.803 Y221.379 Z-35.147
X227.594 Y220.739 Z-34.875
X226.385 Y220.082 Z-34.609
X225.177 Y219.407 Z-34.35
X223.97 Y218.716 Z-34.097
X222.765 Y218.007 Z-33.851
X221.561 Y217.281 Z-33.611
X220.359 Y216.539 Z-33.379
X219.161 Y215.781 Z-33.153
X217.965 Y215.006 Z-32.934
X216.773 Y214.215 Z-32.722
X215.586 Y213.408 Z-32.518
X214.403 Y212.585 Z-32.32
X213.225 Y211.747 Z-32.13
X212.053 Y210.893 Z-31.947
X210.887 Y210.024 Z-31.772
X209.728 Y209.14 Z-31.604
X208.576 Y208.242 Z-31.444
X207.433 Y207.328 Z-31.291
X206.298 Y206.401 Z-31.147
X205.172 Y205.459 Z-31.01
X204.056 Y204.503 Z-30.882
X202.95 Y203.533 Z-30.762
X201.856 Y202.55 Z-30.65
X200.773 Y201.554 Z-30.547
X199.703 Y200.544 Z-30.452
X198.646 Y199.522 Z-30.366
X197.602 Y198.487 Z-30.289
X196.573 Y197.44 Z-30.22
X195.559 Y196.38 Z-30.161
X194.561 Y195.309 Z-30.111
X193.579 Y194.226 Z-30.07
X192.614 Y193.132 Z-30.038
X191.667 Y192.027 Z-30.016
X190.738 Y190.911 Z-30.003
X189.828 Y189.784 Z-30
X188.938 Y188.647 Z-30.007
X188.068 Y187.501 Z-30.024
X187.219 Y186.344 Z-30.05
X186.391 Y185.178 Z-30.086
X185.586 Y184.002 Z-30.133
X184.803 Y182.818 Z-30.19
X184.044 Y181.625 Z-30.256
X183.309 Y180.423 Z-30.333
X182.598 Y179.213 Z-30.421
X181.911 Y177.996 Z-30.518
X181.251 Y176.77 Z-30.626
X180.616 Y175.538 Z-30.745
X180.007 Y174.298 Z-30.874
X179.426 Y173.052 Z-31.013
X178.872 Y171.799 Z-31.163
X178.345 Y170.54 Z-31.323
X177.847 Y169.275 Z-31.493
X177.377 Y168.004 Z-31.674
X176.935 Y166.728 Z-31.865
X176.523 Y165.446 Z-32.066
X176.14 Y164.16 Z-32.278
X175.787 Y162.869 Z-32.5
X175.464 Y161.574 Z-32.732
X175.171 Y160.275 Z-32.973
X174.908 Y158.972 Z-33.225
X174.676 Y157.665 Z-33.487
X174.474 Y156.355 Z-33.758
X174.303 Y155.043 Z-34.04
X174.164 Y153.727 Z-34.33
X174.055 Y152.409 Z-34.63
X173.978 Y151.089 Z-34.94
X173.932 Y149.767 Z-35.258
X173.917 Y148.444 Z-35.586
X173.933 Y147.119 Z-35.922
X173.981 Y145.793 Z-36.267
X174.061 Y144.466 Z-36.621
X174.172 Y143.138 Z-36.983
X174.314 Y141.81 Z-37.354
X174.488 Y140.482 Z-37.732
X174.692 Y139.155 Z-38.118
X174.929 Y137.828 Z-38.513
X175.196 Y136.501 Z-38.914
X175.494 Y135.175 Z-39.323
X175.824 Y133.851 Z-39.74
X176.184 Y132.528 Z-40.163
X176.575 Y131.207 Z-40.593
X176.996 Y129.888 Z-41.029
X177.448 Y128.571 Z-41.472
X177.93 Y127.256 Z-41.922
X178.442 Y125.944 Z-42.377
X178.984 Y124.635 Z-42.838
X179.555 Y123.329 Z-43.304
X180.156 Y122.027 Z-43.776
X180.786 Y120.728 Z-44.253
X181.445 Y119.434 Z-44.734
X182.133 Y118.143 Z-45.221
X182.849 Y116.857 Z-45.711
X183.593 Y115.575 Z-46.206
X184.365 Y114.298 Z-46.705
X185.165 Y113.026 Z-47.207
X185.992 Y111.759 Z-47.713
X186.845 Y110.498 Z-48.222
X187.726 Y109.243 Z-48.735
X188.632 Y107.993 Z-49.25
X189.565 Y106.75 Z-49.767
X190.523 Y105.512 Z-50.287
X191.507 Y104.282 Z-50.808
X192.515 Y103.058 Z-51.332
X193.548 Y101.841 Z-51.857
X194.605 Y100.632 Z-52.383
X195.686 Y99.43 Z-52.91
X196.79 Y98.235 Z-53.438
X197.918 Y97.048 Z-53.967
X199.068 Y95.869 Z-54.496
X200.24 Y94.699 Z-55.024
X201.433 Y93.537 Z-55.553
X202.649 Y92.383 Z-56.081
X203.885 Y91.238 Z-56.609
X205.141 Y90.102 Z-57.135
X206.418 Y88.976 Z-57.66
X207.714 Y87.858 Z-58.184
X209.029 Y86.75 Z-58.706
X210.364 Y85.652 Z-59.226
X211.716 Y84.564 Z-59.744
X213.086 Y83.486 Z-60.259
X214.474 Y82.418 Z-60.771
X215.878 Y81.36 Z-61.281
X217.299 Y80.313 Z-61.787
X218.736 Y79.277 Z-62.291
X220.189 Y78.252 Z-62.79
X221.657 Y77.237 Z-63.285
X223.139 Y76.234 Z-63.776
X224.635 Y75.243 Z-64.263
X226.145 Y74.262 Z-64.745
X227.668 Y73.294 Z-65.223
X229.204 Y72.337 Z-65.695
X230.752 Y71.393 Z-66.162
X232.312 Y70.46 Z-66.624
X233.883 Y69.54 Z-67.08
X235.465 Y68.632 Z-67.53
X237.058 Y67.737 Z-67.974
X238.66 Y66.854 Z-68.412
X240.272 Y65.984 Z-68.843
X241.893 Y65.127 Z-69.268
X243.523 Y64.283 Z-69.685
X245.161 Y63.452 Z-70.096
X246.807 Y62.634 Z-70.499
X248.459 Y61.83 Z-70.896
X250.119 Y61.039 Z-71.284
X251.785 Y60.262 Z-71.665
X253.458 Y59.499 Z-72.039
X255.136 Y58.749 Z-72.404
X256.819 Y58.013 Z-72.761
X258.507 Y57.291 Z-73.11
X260.2 Y56.582 Z-73.451
X261.896 Y55.888 Z-73.784
X263.597 Y55.208 Z-74.108
X265.3 Y54.543 Z-74.423
X267.007 Y53.891 Z-74.73
X268.717 Y53.254 Z-75.028
X270.429 Y52.631 Z-75.317
X272.142 Y52.023 Z-75.598
X273.858 Y51.429 Z-75.869
X275.575 Y50.85 Z-76.132
X277.293 Y50.285 Z-76.385
X279.012 Y49.734 Z-76.63
X280.732 Y49.199 Z-76.866
X282.452 Y48.678 Z-77.092
X284.172 Y48.171 Z-77.31
X285.892 Y47.679 Z-77.519
X287.611 Y47.202 Z-77.718
X289.33 Y46.74 Z-77.909
X291.048 Y46.292 Z-78.091
X292.764 Y45.859 Z-78.264
X294.48 Y45.44 Z-78.428
X296.194 Y45.036 Z-78.583
X297.906 Y44.647 Z-78.73
X299.617 Y44.273 Z-78.868
X301.325 Y43.913 Z-78.997
X303.031 Y43.568 Z-79.118
X304.736 Y43.237 Z-79.231
X306.437 Y42.921 Z-79.335
X308.137 Y42.619 Z-79.431
X309.833 Y42.332 Z-79.519
X311.527 Y42.06 Z-79.599
X313.218 Y41.801 Z-79.672
X314.906 Y41.558 Z-79.736
X316.591 Y41.328 Z-79.794
X318.273 Y41.113 Z-79.843
X319.953 Y40.912 Z-79.886
X321.629 Y40.725 Z-79.921
X323.301 Y40.553 Z-79.95
X324.971 Y40.394 Z-79.972
X326.638 Y40.25 Z-79.988
X328.301 Y40.119 Z-79.997
X329.962 Y40.002 Z-80
X331.619 Y39.9 Z-79.997
X333.273 Y39.811 Z-79.989
X334.924 Y39.735 Z-79.975
X336.572 Y39.674 Z-79.956
X338.217 Y39.626 Z-79.931
X339.859 Y39.591 Z-79.902
X341.499 Y39.57 Z-79.869
X343.135 Y39.562 Z-79.831
X344.769 Y39.567 Z-79.789
X346.4 Y39.586 Z-79.743
X348.029 Y39.618 Z-79.693
X349.655 Y39.663 Z-79.64
X351.278 Y39.721 Z-79.583
X352.9 Y39.791 Z-79.524
X354.518 Y39.875 Z-79.462
X356.135 Y39.971 Z-79.397
X357.749 Y40.081 Z-79.33
X359.361 Y40.202 Z-79.261
X360.972 Y40.337 Z-79.19
X362.58 Y40.484 Z-79.117
X364.186 Y40.643 Z-79.043
X365.79 Y40.815 Z-78.968
X367.393 Y40.999 Z-78.892
X368.993 Y41.196 Z-78.814
X370.592 Y41.404 Z-78.736
X372.189 Y41.625 Z-78.658
X373.785 Y41.859 Z-78.579
X375.378 Y42.104 Z-78.501
X376.97 Y42.361 Z-78.422
X378.56 Y42.631 Z-78.343
X380.149 Y42.912 Z-78.265
X381.736 Y43.206 Z-78.188
X383.321 Y43.512 Z-78.111
X384.904 Y43.829 Z-78.034
X386.486 Y44.158 Z-77.959
X388.065 Y44.5 Z-77.884
X389.643 Y44.853 Z-77.811
X391.218 Y45.218 Z-77.739
X392.792 Y45.595 Z-77.668
X394.363 Y45.985 Z-77.599
X395.933 Y46.385 Z-77.531
X397.499 Y46.798 Z-77.464
X399.064 Y47.223 Z-77.399
X400.626 Y47.66 Z-77.336
X402.185 Y48.109 Z-77.274
X403.742 Y48.569 Z-77.214
X405.295 Y49.042 Z-77.156
X406.846 Y49.526 Z-77.1
X408.394 Y50.023 Z-77.046
X409.939 Y50.531 Z-76.994
X411.48 Y51.052 Z-76.944
X413.017 Y51.584 Z-76.895
X414.552 Y52.129 Z-76.849
X416.082 Y52.685 Z-76.805
X417.609 Y53.254 Z-76.763
X419.131 Y53.835 Z-76.723
X420.65 Y54.428 Z-76.685
X422.164 Y55.033 Z-76.649
X423.673 Y55.65 Z-76.616
X425.178 Y56.279 Z-76.584
X426.679 Y56.921 Z-76.555
X428.174 Y57.575 Z-76.528
X429.665 Y58.241 Z-76.503
X431.15 Y58.919 Z-76.48
X432.63 Y59.61 Z-76.46
X434.104 Y60.312 Z-76.441
X435.573 Y61.027 Z-76.425
X437.036 Y61.755 Z-76.411
X438.493 Y62.494 Z-76.399
X439.944 Y63.246 Z-76.389
X441.389 Y64.011 Z-76.381
X442.828 Y64.787 Z-76.376
X444.26 Y65.576 Z-76.372
X445.685 Y66.378 Z-76.371
X447.103 Y67.192
X448.515 Y68.018 Z-76.374
X449.919 Y68.856 Z-76.379
X451.317 Y69.707 Z-76.386
X452.706 Y70.57 Z-76.395
X454.089 Y71.446 Z-76.406
X455.463 Y72.334 Z-76.419
X456.83 Y73.235 Z-76.434
X458.189 Y74.147 Z-76.451
X459.539 Y75.073 Z-76.469
X460.881 Y76.01 Z-76.49
X462.215 Y76.961 Z-76.513
X463.54 Y77.923 Z-76.537
X464.857 Y78.898 Z-76.563
X466.164 Y79.885 Z-76.591
X467.463 Y80.884 Z-76.621
X468.752 Y81.896 Z-76.652
X470.032 Y82.921 Z-76.685
X471.302 Y83.957 Z-76.72
X472.563 Y85.006 Z-76.756
X473.813 Y86.067 Z-76.794
X475.054 Y87.141 Z-76.833
X476.285 Y88.227 Z-76.873
X477.505 Y89.325 Z-76.915
X478.715 Y90.435 Z-76.959
X479.915 Y91.557 Z-77.004
X481.103 Y92.692 Z-77.05
X482.281 Y93.839 Z-77.097
X483.447 Y94.998 Z-77.145
X484.603 Y96.17 Z-77.195
X485.747 Y97.353 Z-77.245
X486.879 Y98.548 Z-77.296
X488 Y99.756 Z-77.349
X489.109 Y100.975 Z-77.402
X490.205 Y102.207 Z-77.456
X491.29 Y103.45 Z-77.511
X492.362 Y104.706 Z-77.566
X493.422 Y105.973 Z-77.622
X494.469 Y107.252 Z-77.678
X495.503 Y108.543 Z-77.736
X496.525 Y109.845 Z-77.793
X497.533 Y111.159 Z-77.851
X498.528 Y112.485 Z-77.909
X499.51 Y113.822 Z-77.967
X500.478 Y115.171 Z-78.026
X501.433 Y116.532 Z-78.085
X502.374 Y117.903 Z-78.143
X503.301 Y119.286 Z-78.202
X504.214 Y120.68 Z-78.26
X505.112 Y122.085 Z-78.319
X505.997 Y123.502 Z-78.377
X506.867 Y124.929 Z-78.435
X507.722 Y126.367 Z-78.493
X508.563 Y127.816 Z-78.55
X509.389 Y129.275 Z-78.607
X510.201 Y130.745 Z-78.663
X510.997 Y132.225 Z-78.719
X511.778 Y133.716 Z-78.774
X512.544 Y135.217 Z-78.828
X513.295 Y136.728 Z-78.882
X514.031 Y138.249 Z-78.935
X514.751 Y139.78 Z-78.987
X515.455 Y141.32 Z-79.039
X516.144 Y142.87 Z-79.089
X516.818 Y144.43 Z-79.138
X517.475 Y145.998 Z-79.187
X518.117 Y147.576 Z-79.234
X518.743 Y149.163 Z-79.28
X519.353 Y150.758 Z-79.325
X519.947 Y152.362 Z-79.369
X520.525 Y153.974 Z-79.412
X521.088 Y155.595 Z-79.453
X521.633 Y157.224 Z-79.493
X522.163 Y158.86 Z-79.532
X522.677 Y160.504 Z-79.569
X523.174 Y162.156 Z-79.605
X523.655 Y163.815 Z-79.639
X524.12 Y165.481 Z-79.673
X524.569 Y167.154 Z-79.704
X525.001 Y168.834 Z-79.734
X525.417 Y170.52 Z-79.763
X525.817 Y172.212 Z-79.789
X526.2 Y173.911 Z-79.815
X526.567 Y175.615 Z-79.839
X526.918 Y177.325 Z-79.861
X527.252 Y179.04 Z-79.882
X527.57 Y180.76 Z-79.9
X527.872 Y182.485 Z-79.918
X528.157 Y184.214 Z-79.933
X528.426 Y185.948 Z-79.947
X528.679 Y187.687 Z-79.96
X528.916 Y189.429 Z-79.97
X529.136 Y191.174 Z-79.979
X529.34 Y192.923 Z-79.987
X529.528 Y194.675 Z-79.993
X529.7 Y196.43 Z-79.997
X529.856 Y198.187 Z-79.999
X529.996 Y199.947 Z-80
X530.12 Y201.709 Z-79.999
X530.228 Y203.472 Z-79.997
X530.32 Y205.237 Z-79.993
X530.396 Y207.003 Z-79.988
X530.456 Y208.77 Z-79.98
X530.501 Y210.537 Z-79.972
X530.53 Y212.305 Z-79.962
X530.543 Y214.073 Z-79.95
X530.541 Y215.841 Z-79.937
X530.523 Y217.608 Z-79.923
X530.49 Y219.374 Z-79.907
X530.441 Y221.139 Z-79.89
X530.377 Y222.903 Z-79.872
X530.298 Y224.666 Z-79.852
X530.203 Y226.426 Z-79.831
X530.093 Y228.185 Z-79.809
X529.968 Y229.941 Z-79.785
X529.828 Y231.694 Z-79.76
X529.673 Y233.444 Z-79.734
X529.503 Y235.192 Z-79.707
X529.318 Y236.935 Z-79.679
X529.118 Y238.675 Z-79.65
X528.903 Y240.411 Z-79.62
X528.673 Y242.143 Z-79.589
X528.429 Y243.871 Z-79.557
X528.17 Y245.593 Z-79.524
X527.896 Y247.311 Z-79.49
X527.607 Y249.024 Z-79.456
X527.304 Y250.731 Z-79.421
X526.986 Y252.433 Z-79.384
X526.653 Y254.13 Z-79.348
X526.306 Y255.82 Z-79.31
X525.944 Y257.504 Z-79.272
X525.568 Y259.182 Z-79.233
X525.177 Y260.853 Z-79.194
X524.772 Y262.517 Z-79.154
X524.352 Y264.175 Z-79.114
X523.917 Y265.825 Z-79.073
X523.468 Y267.469 Z-79.032
X523.004 Y269.105 Z-78.991
X522.526 Y270.733 Z-78.949
X522.033 Y272.354 Z-78.907
X521.526 Y273.966 Z-78.864
X521.003 Y275.571 Z-78.822
X520.467 Y277.168 Z-78.779
X519.916 Y278.756 Z-78.736
X519.35 Y280.336 Z-78.693
X518.769 Y281.908 Z-78.65
X518.174 Y283.47 Z-78.607
X517.564 Y285.024 Z-78.564
X516.94 Y286.569 Z-78.521
X516.301 Y288.105 Z-78.478
X515.647 Y289.632 Z-78.435
X514.978 Y291.149 Z-78.392
X514.295 Y292.657 Z-78.35
X513.597 Y294.156 Z-78.308
X512.884 Y295.645 Z-78.266
X512.156 Y297.124 Z-78.224
X511.413 Y298.594 Z-78.183
X510.656 Y300.053 Z-78.142
X509.883 Y301.502 Z-78.101
X509.096 Y302.942 Z-78.061
X508.294 Y304.371 Z-78.021
X507.477 Y305.79 Z-77.982
X506.645 Y307.198 Z-77.943
X505.798 Y308.596 Z-77.906
X504.936 Y309.984 Z-77.868
X504.059 Y311.36 Z-77.831
X503.167 Y312.727 Z-77.795
X502.26 Y314.082 Z-77.76
X501.338 Y315.426 Z-77.726
X500.401 Y316.759 Z-77.692
X499.449 Y318.082 Z-77.659
X498.482 Y319.393 Z-77.627
X497.5 Y320.693 Z-77.596
X496.502 Y321.982 Z-77.566
X495.49 Y323.259 Z-77.536
X494.463 Y324.525 Z-77.508
X493.42 Y325.78 Z-77.481
X492.362 Y327.023 Z-77.454
X491.29 Y328.254 Z-77.429
X490.202 Y329.474 Z-77.405
X489.099 Y330.683 Z-77.382
X487.981 Y331.879 Z-77.36
X486.847 Y333.064 Z-77.34
X485.699 Y334.236 Z-77.32
X484.536 Y335.397 Z-77.302
X483.357 Y336.546 Z-77.285
X482.164 Y337.683 Z-77.269
X480.955 Y338.808 Z-77.255
X479.731 Y339.921 Z-77.242
X478.492 Y341.022 Z-77.23
X477.238 Y342.111 Z-77.219
X475.97 Y343.187 Z-77.21
X474.686 Y344.251 Z-77.202
X473.387 Y345.303 Z-77.196
X472.073 Y346.343 Z-77.19
X470.744 Y347.37 Z-77.187
X469.4 Y348.386 Z-77.185
X468.041 Y349.388 Z-77.184
X466.668 Y350.379
X465.279 Y351.357 Z-77.186
X463.876 Y352.322 Z-77.19
X462.458 Y353.276 Z-77.194
X461.025 Y354.217 Z-77.201
X459.577 Y355.145 Z-77.208
X458.114 Y356.061 Z-77.218
X456.637 Y356.964 Z-77.228
X455.145 Y357.855 Z-77.24
X453.639 Y358.734 Z-77.254
X452.118 Y359.6 Z-77.269
X450.583 Y360.453 Z-77.285
X449.033 Y361.295 Z-77.303
X447.468 Y362.123 Z-77.322
X445.89 Y362.939 Z-77.342
X444.297 Y363.743 Z-77.364
X442.69 Y364.534 Z-77.387
X441.068 Y365.313 Z-77.412
X439.433 Y366.079 Z-77.438
X437.783 Y366.833 Z-77.465
X436.119 Y367.574 Z-77.494
X434.442 Y368.303 Z-77.524
X432.75 Y369.02 Z-77.555
X431.045 Y369.724 Z-77.588
X429.326 Y370.416 Z-77.621
X427.594 Y371.095 Z-77.656
X425.848 Y371.762 Z-77.692
X424.088 Y372.416 Z-77.729
X422.315 Y373.058 Z-77.768
X420.529 Y373.688 Z-77.807
X418.729 Y374.306 Z-77.847
X416.917 Y374.911 Z-77.889
X415.091 Y375.504 Z-77.931
X413.253 Y376.085 Z-77.975
X411.401 Y376.653 Z-78.019
X409.537 Y377.21 Z-78.064
X407.661 Y377.754 Z-78.11
X405.772 Y378.286 Z-78.157
X403.87 Y378.805 Z-78.205
X401.957 Y379.313 Z-78.254
X400.031 Y379.808 Z-78.303
X398.093 Y380.292 Z-78.352
X396.144 Y380.763 Z-78.403
X394.183 Y381.222 Z-78.453
X392.21 Y381.67 Z-78.505
X390.226 Y382.105 Z-78.557
X388.23 Y382.528 Z-78.609
X386.224 Y382.939 Z-78.661
X384.206 Y383.339 Z-78.714
X382.178 Y383.726 Z-78.766
X380.139 Y384.102 Z-78.819
X378.09 Y384.466 Z-78.872
X376.03 Y384.818 Z-78.925
X373.961 Y385.158 Z-78.978
X371.881 Y385.486 Z-79.03
X369.792 Y385.803 Z-79.082
X367.693 Y386.108 Z-79.134
X365.585 Y386.401 Z-79.186
X363.468 Y386.682 Z-79.237
X361.342 Y386.952 Z-79.287
X359.207 Y387.211 Z-79.336
X357.064 Y387.457 Z-79.385
X354.913 Y387.692 Z-79.432
X352.754 Y387.916 Z-79.479
X350.588 Y388.128 Z-79.524
X348.413 Y388.328 Z-79.568
X346.232 Y388.517 Z-79.611
X344.044 Y388.695 Z-79.652
X341.849 Y388.861 Z-79.692
X339.648 Y389.016 Z-79.73
X337.441 Y389.159 Z-79.766
X335.228 Y389.291 Z-79.799
X333.009 Y389.412 Z-79.831
X330.785 Y389.521 Z-79.86
X328.557 Y389.619 Z-79.887
X326.324 Y389.706 Z-79.912
X324.086 Y389.782 Z-79.934
X321.845 Y389.846 Z-79.952
X319.599 Y389.899 Z-79.968
X317.351 Y389.941 Z-79.981
X315.099 Y389.972 Z-79.991
X312.845 Y389.991 Z-79.997
X310.588 Y390 Z-80
X308.329 Y389.997 Z-79.999
X306.068 Y389.983 Z-79.994
X303.806 Y389.958 Z-79.986
X301.542 Y389.922 Z-79.973
X299.278 Y389.876 Z-79.957
X297.013 Y389.818 Z-79.936
X294.747 Y389.749 Z-79.91
X292.482 Y389.669 Z-79.881
X290.217 Y389.578 Z-79.846
X287.953 Y389.476 Z-79.807
X285.689 Y389.363 Z-79.763
X283.427 Y389.239 Z-79.714
X281.167 Y389.104 Z-79.66
X278.908 Y388.959 Z-79.601
X276.652 Y388.802 Z-79.537
X274.397 Y388.635 Z-79.467
X272.146 Y388.456 Z-79.393
X269.897 Y388.267 Z-79.312
X267.652 Y388.067 Z-79.227
X265.41 Y387.856 Z-79.135
X263.172 Y387.634 Z-79.038
X260.939 Y387.402 Z-78.936
X258.709 Y387.158 Z-78.827
X256.484 Y386.904 Z-78.713
X254.263 Y386.639 Z-78.593
X252.048 Y386.363 Z-78.467
X249.838 Y386.077 Z-78.335
X247.634 Y385.779 Z-78.198
X245.435 Y385.471 Z-78.054
X243.242 Y385.152 Z-77.904
X241.056 Y384.822 Z-77.749
X238.875 Y384.481 Z-77.587
X236.702 Y384.13 Z-77.42
X234.535 Y383.768 Z-77.246
X232.376 Y383.395 Z-77.067
X230.223 Y383.011 Z-76.882
X228.079 Y382.616 Z-76.69
X225.942 Y382.211 Z-76.493
X223.812 Y381.795 Z-76.289
X221.691 Y381.368 Z-76.08
X219.578 Y380.931 Z-75.865
X217.474 Y380.483 Z-75.644
X215.378 Y380.024 Z-75.417
X213.291 Y379.554 Z-75.185
X211.213 Y379.073 Z-74.946
X209.144 Y378.582 Z-74.702
X207.085 Y378.08 Z-74.452
X205.035 Y377.567 Z-74.197
X202.994 Y377.044 Z-73.936
X200.964 Y376.51 Z-73.669
X198.943 Y375.965 Z-73.397
X196.933 Y375.409 Z-73.119
X194.933 Y374.843 Z-72.837
X192.944 Y374.266 Z-72.549
X190.965 Y373.678 Z-72.255
X188.996 Y373.08 Z-71.957
X187.039 Y372.471 Z-71.653
X185.093 Y371.851 Z-71.344
X183.157 Y371.22 Z-71.031
X181.233 Y370.579 Z-70.712
X179.321 Y369.927 Z-70.389
X177.42 Y369.265 Z-70.061
X175.531 Y368.592 Z-69.729
X173.653 Y367.908 Z-69.392
X171.787 Y367.213 Z-69.05
X169.934 Y366.508 Z-68.704
X168.092 Y365.793 Z-68.354
X166.263 Y365.066 Z-68
X164.446 Y364.329 Z-67.642
X162.642 Y363.582 Z-67.279
X160.85 Y362.823 Z-66.913
X159.07 Y362.055 Z-66.544
X157.304 Y361.275 Z-66.17
X155.55 Y360.485 Z-65.793
X153.809 Y359.685 Z-65.413
X152.082 Y358.874 Z-65.029
X150.367 Y358.053 Z-64.642
X148.666 Y357.22 Z-64.252
X146.978 Y356.378 Z-63.859
X145.303 Y355.525 Z-63.463
X143.642 Y354.662 Z-63.065
X141.994 Y353.788 Z-62.664
X140.36 Y352.903 Z-62.26
X138.739 Y352.008 Z-61.854
X137.132 Y351.103 Z-61.445
X135.539 Y350.188 Z-61.035
X133.96 Y349.262 Z-60.623
X132.395 Y348.326 Z-60.208
X130.844 Y347.379 Z-59.792
X129.306 Y346.422 Z-59.374
X127.783 Y345.455 Z-58.955
X126.274 Y344.478 Z-58.535
X124.78 Y343.49 Z-58.113
X123.299 Y342.492 Z-57.69
X121.833 Y341.484 Z-57.266
X120.382 Y340.466 Z-56.841
X118.944 Y339.438 Z-56.415
X117.521 Y338.399 Z-55.989
X116.113 Y337.351 Z-55.562
X114.719 Y336.293 Z-55.136
X113.34 Y335.224 Z-54.708
X111.975 Y334.146 Z-54.281
X110.625 Y333.057 Z-53.854
X109.29 Y331.959 Z-53.427
X107.969 Y330.851 Z-53
X106.664 Y329.733 Z-52.574
X105.373 Y328.605 Z-52.149
X104.096 Y327.467 Z-51.724
X102.835 Y326.32 Z-51.3
X101.588 Y325.163 Z-50.877
X100.357 Y323.996 Z-50.455
X99.14 Y322.82 Z-50.035
X97.938 Y321.634 Z-49.615
X96.751 Y320.439 Z-49.198
X95.579 Y319.234 Z-48.782
X94.422 Y318.02 Z-48.368
X93.28 Y316.796 Z-47.955
X92.153 Y315.563 Z-47.545
X91.041 Y314.321 Z-47.137
X89.944 Y313.07 Z-46.731
X88.862 Y311.809 Z-46.328
X87.795 Y310.539 Z-45.927
X86.743 Y309.26 Z-45.529
X85.706 Y307.973 Z-45.134
X84.684 Y306.676 Z-44.742
X83.677 Y305.37 Z-44.353
X82.685 Y304.055 Z-43.967
X81.709 Y302.732 Z-43.584
X80.747 Y301.4 Z-43.205
X79.8 Y300.059 Z-42.829
X78.869 Y298.71 Z-42.457
X77.952 Y297.352 Z-42.089
X77.051 Y295.985 Z-41.725
X76.164 Y294.61 Z-41.364
X75.293 Y293.227 Z-41.008
X74.437 Y291.836 Z-40.656
X73.595 Y290.436 Z-40.309
X72.769 Y289.029 Z-39.965
X71.958 Y287.613 Z-39.627
X71.162 Y286.189 Z-39.293
X70.38 Y284.758 Z-38.964
X69.614 Y283.318 Z-38.639
X68.863 Y281.871 Z-38.32
X68.126 Y280.417 Z-38.006
X67.405 Y278.954 Z-37.697
X66.698 Y277.485 Z-37.393
X66.007 Y276.008 Z-37.094
X65.33 Y274.523 Z-36.801
X64.668 Y273.032 Z-36.513
X64.021 Y271.534 Z-36.231
X63.389 Y270.028 Z-35.954
X62.772 Y268.516 Z-35.683
X62.169 Y266.997 Z-35.418
X61.582 Y265.471 Z-35.159
X61.009 Y263.938 Z-34.906
X60.451 Y262.4 Z-34.659
X59.907 Y260.855 Z-34.417
X59.379 Y259.303 Z-34.182
X58.865 Y257.746 Z-33.953
X58.365 Y256.182 Z-33.73
X57.881 Y254.613 Z-33.514
X57.411 Y253.038 Z-33.303
X56.956 Y251.457 Z-33.099
X56.515 Y249.871 Z-32.902
X56.089 Y248.28 Z-32.711
X55.678 Y246.683 Z-32.526
X55.281 Y245.081 Z-32.348
X54.898 Y243.474 Z-32.176
X54.53 Y241.862 Z-32.011
X54.177 Y240.246 Z-31.852
X53.838 Y238.625 Z-31.7
X53.514 Y237 Z-31.555
X53.204 Y235.37 Z-31.416
X52.909 Y233.736 Z-31.283
X52.627 Y232.098 Z-31.158
X52.361 Y230.456 Z-31.038
X52.108 Y228.811 Z-30.926
X51.87 Y227.162 Z-30.82
X51.647 Y225.51 Z-30.721
X51.437 Y223.854 Z-30.628
X51.242 Y222.195 Z-30.541
X51.062 Y220.534 Z-30.462
X50.895 Y218.869 Z-30.388
X50.743 Y217.202 Z-30.321
X50.605 Y215.533 Z-30.261
X50.481 Y213.861 Z-30.207
X50.371 Y212.187 Z-30.159
X50.276 Y210.511 Z-30.118
X50.195 Y208.834 Z-30.083
X50.128 Y207.155 Z-30.054
X50.075 Y205.474 Z-30.032
X50.036 Y203.792 Z-30.015
X50.011 Y202.109 Z-30.005
X50 Y200.426 Z-30
X50.004 Y198.741 Z-30.002
X50.021 Y197.056 Z-30.009
X50.053 Y195.371 Z-30.022
X50.099 Y193.685 Z-30.041
X50.159 Y191.999 Z-30.066
X50.232 Y190.314 Z-30.096
X50.32 Y188.629 Z-30.131
X50.422 Y186.944 Z-30.172
X50.538 Y185.26 Z-30.219
X50.668 Y183.577 Z-30.27
X50.811 Y181.895 Z-30.327
X50.969 Y180.215 Z-30.389
X51.141 Y178.535 Z-30.456
X51.327 Y176.858 Z-30.528
X51.526 Y175.182 Z-30.605
X51.74 Y173.508 Z-30.687
X51.967 Y171.836 Z-30.773
X52.209 Y170.166 Z-30.864
X52.464 Y168.499 Z-30.96
X52.734 Y166.834 Z-31.06
X53.017 Y165.172 Z-31.164
X53.314 Y163.514 Z-31.273
X53.625 Y161.858 Z-31.386
X53.95 Y160.205 Z-31.503
X54.288 Y158.556 Z-31.625
X54.641 Y156.911 Z-31.75
X55.007 Y155.269 Z-31.879
X55.387 Y153.631 Z-32.012
X55.781 Y151.997 Z-32.149
X56.189 Y150.367 Z-32.29
X56.611 Y148.742 Z-32.434
X57.047 Y147.121 Z-32.582
X57.496 Y145.504 Z-32.734
X57.959 Y143.892 Z-32.889
X58.436 Y142.285 Z-33.047
X58.926 Y140.683 Z-33.209
X59.431 Y139.086 Z-33.375
X59.949 Y137.495 Z-33.543
X60.481 Y135.908 Z-33.715
X61.026 Y134.328 Z-33.89
X61.586 Y132.752 Z-34.068
X62.159 Y131.183 Z-34.249
X62.745 Y129.619 Z-34.433
X63.346 Y128.061 Z-34.62
X63.96 Y126.509 Z-34.81
X64.588 Y124.963 Z-35.003
X65.229 Y123.424 Z-35.198
X65.885 Y121.891 Z-35.397
X66.553 Y120.364 Z-35.598
X67.236 Y118.844 Z-35.802
X67.932 Y117.331 Z-36.009
X68.642 Y115.824 Z-36.218
X69.365 Y114.324 Z-36.43
X70.102 Y112.831 Z-36.644
X70.853 Y111.346 Z-36.861
X71.617 Y109.867 Z-37.08
X72.395 Y108.396 Z-37.302
X73.186 Y106.932 Z-37.526
X73.991 Y105.475 Z-37.753
X74.81 Y104.026 Z-37.981
X75.642 Y102.584 Z-38.212
X76.488 Y101.151 Z-38.446
X77.347 Y99.725 Z-38.681
X78.219 Y98.307 Z-38.919
X79.106 Y96.896 Z-39.159
X80.005 Y95.494 Z-39.4
X80.919 Y94.1 Z-39.644
X81.845 Y92.714 Z-39.89
X82.786 Y91.336 Z-40.138
X83.739 Y89.967 Z-40.388
X84.707 Y88.606 Z-40.64
X85.687 Y87.254 Z-40.893
X86.682 Y85.91 Z-41.149
X87.689 Y84.575 Z-41.406
X88.71 Y83.249 Z-41.665
X89.745 Y81.931 Z-41.926
X90.793 Y80.622 Z-42.188
X91.854 Y79.323 Z-42.452
X92.929 Y78.032 Z-42.718
X94.018 Y76.75 Z-42.985
X95.119 Y75.478 Z-43.254
X96.234 Y74.214 Z-43.525
X97.363 Y72.96 Z-43.797
X98.505 Y71.715 Z-44.07
X99.66 Y70.48 Z-44.345
X100.829 Y69.254 Z-44.621
X102.011 Y68.038 Z-44.899
X103.206 Y66.831 Z-45.178
X104.415 Y65.634 Z-45.459
X105.637 Y64.447 Z-45.74
X106.873 Y63.269 Z-46.023
X108.122 Y62.101 Z-46.308
X109.384 Y60.943 Z-46.593
X110.66 Y59.795 Z-46.88
X111.949 Y58.656 Z-47.168
X113.251 Y57.528 Z-47.457
X114.566 Y56.41 Z-47.747
X115.895 Y55.302 Z-48.039
X117.237 Y54.204 Z-48.331
X118.593 Y53.117 Z-48.625
X119.962 Y52.039 Z-48.919
X121.344 Y50.972 Z-49.215
X122.739 Y49.915 Z-49.512
X124.148 Y48.868 Z-49.809
X125.569 Y47.832 Z-50.108
X127.005 Y46.807 Z-50.407
X128.453 Y45.792 Z-50.708
X129.915 Y44.787 Z-51.009
X131.39 Y43.793 Z-51.312
X132.878 Y42.809 Z-51.615
X134.379 Y41.836 Z-51.919
X135.894 Y40.874 Z-52.224
X137.422 Y39.922 Z-52.53
X138.963 Y38.981 Z-52.837
X140.517 Y38.051 Z-53.144
X142.085 Y37.132 Z-53.453
X143.666 Y36.223 Z-53.762
X145.26 Y35.326 Z-54.072
X146.867 Y34.439 Z-54.382
X148.487 Y33.563 Z-54.694
X150.121 Y32.698 Z-55.006
X151.768 Y31.844 Z-55.319
X153.428 Y31 Z-55.632
X155.101 Y30.168 Z-55.947
X156.787 Y29.347 Z-56.262
X158.487 Y28.537 Z-56.578
X160.2 Y27.738 Z-56.894
X161.925 Y26.95 Z-57.211
X163.664 Y26.173 Z-57.529
X165.417 Y25.407 Z-57.847
X167.182 Y24.652 Z-58.166
X168.96 Y23.909 Z-58.486
X170.752 Y23.176 Z-58.806
X172.557 Y22.455 Z-59.127
X174.375 Y21.745 Z-59.449
X176.206 Y21.046 Z-59.771
X178.05 Y20.358 Z-60.093
X179.907 Y19.682 Z-60.417
X181.777 Y19.017 Z-60.741
X183.661 Y18.363 Z-61.065
X185.558 Y17.721 Z-61.39
X187.467 Y17.09 Z-61.716
X189.39 Y16.47 Z-62.042
X191.326 Y15.861 Z-62.368
X193.275 Y15.264 Z-62.695
X195.238 Y14.678 Z-63.023
X197.213 Y14.104 Z-63.351
X199.201 Y13.541 Z-63.68
X201.203 Y12.989 Z-64.009
X203.217 Y12.448 Z-64.339
X205.245 Y11.92 Z-64.669
X207.286 Y11.402 Z-65
X209.339 Y10.896 Z-65.331
X211.406 Y10.401 Z-65.663
X213.486 Y9.918 Z-65.995
X215.579 Y9.446 Z-66.328
X217.685 Y8.986 Z-66.661
X219.805 Y8.537 Z-66.995
X221.937 Y8.1 Z-67.329
X224.082 Y7.674 Z-67.663
X226.24 Y7.259 Z-67.998
X228.412 Y6.856 Z-68.334
X230.596 Y6.465 Z-68.67
X232.794 Y6.085 Z-69.006
X235.005 Y5.716 Z-69.343
X237.228 Y5.359 Z-69.68
X239.465 Y5.014 Z-70.018
X241.715 Y4.68 Z-70.356
X243.977 Y4.357 Z-70.695
X246.253 Y4.046 Z-71.034
X248.542 Y3.746 Z-71.373
X250.844 Y3.458 Z-71.713
X253.159 Y3.182 Z-72.053
X255.487 Y2.917 Z-72.394
X257.828 Y2.663 Z-72.735
X260.182 Y2.421 Z-73.077
X262.549 Y2.191 Z-73.419
X264.929 Y1.972 Z-73.761
X267.323 Y1.764 Z-74.104
X269.729 Y1.569 Z-74.448
X272.148 Y1.384 Z-74.792
X274.58 Y1.211 Z-75.136
X277.026 Y1.05 Z-75.48
X279.484 Y0.9 Z-75.826
X281.955 Y0.762 Z-76.171
X284.44 Y0.635 Z-76.517
X286.937 Y0.519 Z-76.863
X289.448 Y0.416 Z-77.21
X291.971 Y0.323 Z-77.557
X294.508 Y0.243 Z-77.905
X297.057 Y0.173 Z-78.253
X299.62 Y0.116 Z-78.602
X302.195 Y0.07 Z-78.951
X304.784 Y0.035 Z-79.3
X307.385 Y0.012 Z-79.65
X310 Y0 Z-80
Z-30
G0 X620
G1 Z-80 F90000
Y400 F120000
X0
Y0
X620
Z-30
G0 X0 Y400
G1 Z-80 F90000
X620 F120000
Y0
X0 Y400
Z-30
G0 X620
G1 Z-80 F90000
X0 Y0 F120000
X620
Y400
Z-30
G0 X470 Y0
G1 Z-40 F90000
X620 Y400 F120000
Y200
X310 Y0
X0 Y200
X310 Y400
X470 Y0
Z-30
G0 X620 Y200
G1 Z-40 F90000
X310 Y0 F120000
X0 Y200
X310 Y400
X620 Y200
Z-30
G0 X0
G1 Z-40 F90000
X310 Y400 F120000
X620 Y200
X310 Y0 Z-80
X0 Y400 Z-40
X310 Z-80
Y0 Z-40
X0 Y200
Z-30
G0 Y400
G1 Z-40 F90000
X150 Y0 F120000
X310 Y400
X620 Y200
Y400
X0
Z-30
G0 X620 Y200
G1 Z-40 F90000
X310 Y0 Z-80 F120000
X0 Y400 Z-40
X620
Y200
Z-30
G28 G91 Z0
G90
G28 G91 X0 Y0
G90
M5
M30
